src/images/hackathon/banner-image-1.svg

<svg fill="none" height="342" viewBox="0 0 421 342" width="421" xmlns="http://www.w3.org/2000/svg" xmlns:xlink="http://www.w3.org/1999/xlink"><linearGradient id="a" gradientUnits="userSpaceOnUse" x1="0" x2="71.0285" y1="23.5847" y2="23.5847"><stop offset="0" stop-color="#f74700"/><stop offset=".59707" stop-color="#f74700" stop-opacity=".356052"/><stop offset="1" stop-color="#7c2f0f" stop-opacity="0"/></linearGradient><linearGradient id="b"><stop offset="0" stop-color="#0c84fa"/><stop offset=".322135" stop-color="#29b6f8"/><stop offset="1" stop-color="#4fc4f9" stop-opacity=".36"/></linearGradient><linearGradient id="c" gradientUnits="userSpaceOnUse" x1="160" x2="337.326" xlink:href="#b" y1="188.096" y2="188.096"/><linearGradient id="d" gradientUnits="userSpaceOnUse" x1="0" x2="66.9149" xlink:href="#b" y1="30.9893" y2="30.9893"/><g stroke="#0b9be7"><g opacity=".37"><path d="m0 31h421"/><path d="m0 100h421"/><path d="m0 170h421"/><path d="m0 240h421"/><path d="m0 309h421"/><path d="m310 0v342"/><path d="m379.37 0v342"/><path d="m240.634 0v342"/><path d="m171 0v342"/><path d="m101.366 0v342"/><path d="m31.7319 0v342"/></g><circle cx="32" cy="170" r="5.5"/><circle cx="310" cy="31" r="5.5" transform="matrix(0 -1 1 0 279 341)"/><circle cx="32" cy="100" r="5.5"/><circle cx="240" cy="31" r="5.5" transform="matrix(0 -1 1 0 209 271)"/><path d="m32 105.5v59.5"/><path d="m245.5 31h59.5"/><circle cx="379" cy="309" r="5.5" transform="matrix(0 1 -1 0 688 -70)"/><circle cx="241" cy="309" r="5.5" transform="matrix(0 1 -1 0 550 68)"/><circle cx="310" cy="278" r="5.5" transform="matrix(0 1 -1 0 588 -32)"/><path d="m247 309h37c14.359 0 26-11.641 26-26"/><path d="m373 309h-37c-14.359 0-26-11.641-26-26"/></g><circle fill="url(#a)" r="23.5847" transform="matrix(.00000001 1 1 -.00000001 274.585 134.585)"/><circle fill="url(#a)" r="23.5847" transform="matrix(.00000001 1 1 -.00000001 274.585 134.585)"/><path clip-rule="evenodd" d="m285 155.751c-3.141 1.549-6.677 2.418-10.415 2.418-3.413 0-6.657-.724-9.585-2.029-.076 27.55-22.433 49.86-50 49.86h-35v-90.5h-20v110.5h55c38.66 0 70-31.34 70-70z" fill="url(#c)" fill-rule="evenodd"/><circle fill="url(#d)" r="23.5847" transform="matrix(-.00000004 1 1 .00000004 170.585 239.585)"/><circle fill="url(#d)" r="23.5847" transform="matrix(.00000001 -1 -1 -.00000001 170.584 99.5847)"/></svg>

<svg width="421" height="342" viewBox="0 0 421 342" fill="none" xmlns="http://www.w3.org/2000/svg">
<g opacity="0.37">
<path d="M0 31H421" stroke="#0B9BE7"/>
<path d="M0 100H421" stroke="#0B9BE7"/>
<path d="M0 170H421" stroke="#0B9BE7"/>
<path d="M0 240H421" stroke="#0B9BE7"/>
<path d="M0 309H421" stroke="#0B9BE7"/>
<path d="M310 0L310 342" stroke="#0B9BE7"/>
<path d="M379.37 0L379.37 342" stroke="#0B9BE7"/>
<path d="M240.634 0L240.634 342" stroke="#0B9BE7"/>
<path d="M171 0L171 342" stroke="#0B9BE7"/>
<path d="M101.366 0L101.366 342" stroke="#0B9BE7"/>
<path d="M31.7319 0L31.7319 342" stroke="#0B9BE7"/>
</g>
<circle cx="32" cy="170" r="5.5" stroke="#0B9BE7"/>
<circle cx="310" cy="31" r="5.5" transform="rotate(-90 310 31)" stroke="#0B9BE7"/>
<circle cx="32" cy="100" r="5.5" stroke="#0B9BE7"/>
<circle cx="240" cy="31" r="5.5" transform="rotate(-90 240 31)" stroke="#0B9BE7"/>
<path d="M32 105.5V165" stroke="#0B9BE7"/>
<path d="M245.5 31L305 31" stroke="#0B9BE7"/>
<circle cx="379" cy="309" r="5.5" transform="rotate(90 379 309)" stroke="#0B9BE7"/>
<circle cx="241" cy="309" r="5.5" transform="rotate(90 241 309)" stroke="#0B9BE7"/>
<circle cx="310" cy="278" r="5.5" transform="rotate(90 310 278)" stroke="#0B9BE7"/>
<path d="M247 309H284C298.359 309 310 297.359 310 283V283" stroke="#0B9BE7"/>
<path d="M373 309H336C321.641 309 310 297.359 310 283V283" stroke="#0B9BE7"/>
<circle r="23.5847" transform="matrix(1.19249e-08 1 1 -1.19249e-08 274.585 134.585)" fill="url(#paint0_linear)"/>
<circle r="23.5847" transform="matrix(1.19249e-08 1 1 -1.19249e-08 274.585 134.585)" fill="url(#paint1_linear)"/>
<path fill-rule="evenodd" clip-rule="evenodd" d="M285 155.751C281.859 157.3 278.323 158.169 274.585 158.169C271.172 158.169 267.928 157.445 265 156.14C264.924 183.69 242.567 206 215 206H180V115.5H160V226H215C253.66 226 285 194.66 285 156V155.751Z" fill="url(#paint2_linear)"/>
<circle r="23.5847" transform="matrix(-4.37114e-08 1 1 4.37114e-08 170.585 239.585)" fill="url(#paint3_linear)"/>
<circle r="23.5847" transform="matrix(1.19249e-08 -1 -1 -1.19249e-08 170.584 99.5847)" fill="url(#paint4_linear)"/>
<defs>
<linearGradient id="paint0_linear" x1="0" y1="23.5847" x2="71.0285" y2="23.5847" gradientUnits="userSpaceOnUse">
<stop stop-color="#F74700"/>
<stop offset="0.59707" stop-color="#F74700" stop-opacity="0.356052"/>
<stop offset="1" stop-color="#7C2F0F" stop-opacity="0"/>
</linearGradient>
<linearGradient id="paint1_linear" x1="0" y1="23.5847" x2="71.0285" y2="23.5847" gradientUnits="userSpaceOnUse">
<stop stop-color="#F74700"/>
<stop offset="0.59707" stop-color="#F74700" stop-opacity="0.356052"/>
<stop offset="1" stop-color="#7C2F0F" stop-opacity="0"/>
</linearGradient>
<linearGradient id="paint2_linear" x1="160" y1="188.096" x2="337.326" y2="188.096" gradientUnits="userSpaceOnUse">
<stop stop-color="#0C84FA"/>
<stop offset="0.322135" stop-color="#29B6F8"/>
<stop offset="1" stop-color="#4FC4F9" stop-opacity="0.36"/>
</linearGradient>
<linearGradient id="paint3_linear" x1="0" y1="30.9893" x2="66.9149" y2="30.9893" gradientUnits="userSpaceOnUse">
<stop stop-color="#0C84FA"/>
<stop offset="0.322135" stop-color="#29B6F8"/>
<stop offset="1" stop-color="#4FC4F9" stop-opacity="0.36"/>
</linearGradient>
<linearGradient id="paint4_linear" x1="0" y1="30.9893" x2="66.9149" y2="30.9893" gradientUnits="userSpaceOnUse">
<stop stop-color="#0C84FA"/>
<stop offset="0.322135" stop-color="#29B6F8"/>
<stop offset="1" stop-color="#4FC4F9" stop-opacity="0.36"/>
</linearGradient>
</defs>
</svg>
